X:1
T:Created 1.6.2004 by Björn Sothmann - bjoernsothmann@aol.com
%%score 1 2 3 4
L:1/8
Q:1/4=120
M:3/1
K:C
V:1 treble-8 nm="MusicXML Part"
V:2 treble-8 nm="MusicXML Part"
V:3 treble nm="MusicXML Part"
V:4 bass nm="MusicXML Part"
V:1
"^6a. Ogni amante è guerrier: nel suo gran regno\nA doi Tenori\nfrom Madrigal Book VIII\nPrima parte""^Claudio Monteverdi\n1567-1643" z8 z8 d4 d4 | %1
w: O- gni A-|
 B4 G4 G4 B4 d4 d4 | G8 z8 d4 d4 | B4 G4 G4 B4 d4 d4 | G16 z8 | g8 d8 d8 | d16 d8 | d8 d8 d8 | %8
w: man- te o- gni A- man- te è guer-|rier O- gni A-|man- te o- gni A- man- te è guer-|rier|nel suo gran|re- gno ha|ben A- mor|
 B4 B4 B4 A4 G8 | G8 A16 | G24 |[M:4/4] GG G2 c3 B | A4 z A AB | c2 c/c/c/c/ c3 B | cc de d4 | %15
w: la sua mi- li- zia|an- ch'e-|gli|Quel- la fio- ri- ta e-|tà ch'el du- ro|pon- do può so- ste- ner de|l'el- mo e de lo scu-|
[M:3/1] c8 C8 C8 | E8 E8 E8 | G8 G8 G8 | B8 B8 B8 | d8 D8 D8 | ^F8 F8 F8 | A16 A8 | ^c8 c8 c8 | %23
w: do ne- gli as-|sal- ti d'a-|mor ne- gli as-|sal- ti d'a-|mor ne- gli as-|sal- ti d'a-|mor fa|pro- ve fa|
[M:4/4] e4 f4 | e8 | d3 A ^F4 | B2 BA G4 | cB BA/G/ A2 AA |[M:4/4] dc cB/A/ BA AG/F/ | %29
w: pro- ve ec-|cel-|se ne men|scon- tio è ve- der|tre- * * * * * mu- la|tre- * * * * * * * * *|
 G2 FF E2 EE | E4 E4 | E3 A DE/F/ G/A/B/c/ | d/G/A/B/ c/d/e/f/ gd d>d | BB dd d4 | z2 cc c4- | %35
w: * mu- la ma- no per|trop- pa e-|tà vi- brar- * * * * * *|* * * * * * * * * la spa- da e|l'ha- sta che sen- tir|so- spi- rar|
 c2 _B2 B2 A2 |[M:3/1] A24 | G8 z8 z8 | z24 | z24 | z24 | z24 | z24 | z24 | z24 | z8 z8 d4 d4 | %46
w: * ca- nu- to A-|man-|te||||||||O- gni a-|
 B4 G4 G4 B4 d4 d4 | G8 z8 d4 d4 | B4 G4 G4 B4 d4 d4 | G8 z8 z8 | z24 | g8 d8 d8 | d16 d8 | %53
w: man- te o- gni a- man- te è guer-|rier o- gni a-|man- te o- gni a- man- te è guer-|rier||nel suo gran|re- gno|
 d8 d8 d8 | B4 B4 B4 A4 G8 | G8 A16 | G16 z8 | B8 B8 B8 | G4 G4 G4 G4 G8 | G8 G8 ^F8 | G16 z8 | %61
w: ha ben A-|mor la sua mi- li-|zia an- ch'e-|gli|ha ben a-|mor la sua mi- li-|zia an- ch'e- *|gli.|
[M:4/4] G2 GG G2 G2 | G3 G F2 G2 | AA FF A2 AA | c4 z4 |[M:4/4] GG B2 BB d2 | GG B2 BB d2 | %67
w: Am- bo le not- ti|ge- li- de e se-|re- ne è l'a- man- te el guer-|rier|è l'a- man- te el guer- rier|è l'a- man- te el guer- rier|
 g2 fe d4 | c4 G2 FG | EE FG A2 A2 | A2 ^G2 A4 | z4 z2 A2 | ^F2 B3 A AA | A2 G4 ^FF | G2 G2 z4 | %75
w: trag- gon veg- gian-|do Que- sti a sal-|var del ca- pi- tan le|ten- * de|Non|mai mai di fa- ti-|car ces- sa il sol-|da- to|
 z4 D2 DD | G2 D2 G2 B2 | G2 B2 d2 dB | e3 d ^f2 f2 | ^F2 FF B2 F2 | B2 d2 B2 d2 | ^f2 fd g3 f | %82
w: Am- bo sor-|mon- te- ran de|mon- ti al- pe- stri le|du- re ci- me|Am- bo sor- mon- te-|ran de mon- ti al-|pe- stri le du- re|
 a2 a2 z4 | d2 dd d/c/B/c/ d/c/B/A/ | B/A/G/A/ B/A/G/^F/ G2 G2 | d>c B>A G>A G>F | E>F E>D C2 Cc | %87
w: ci- me|am- bo tor- ren- * * * * * * *|* * * * * * * * * ti e|fiu- * * * * * * *|* * * * * mi tra|
 c/d/e/d/ c/B/A/G/ A/B/c/B/ A/G/F/E/ | F/G/A/G/ F/E/D/C/ D2 Dd | %89
w: piog- * * * * * * * * * * * * * * *|* * * * * * * * * ge e|
 g^f/e/ d/c/B/A/ G/^F/E/F/ G/A/B/c/ | dc/B/ A/G/^F/E/ DD DD | ^F2 FG A2 B2 | ^c2 d4 c2 | %93
w: nem- * * * * * * * * * * * * * *|* * * * * * * * bi var- che-|ran var- che- ran si|cu- * *|
 d2 AG ^F2 BA | G2 A/G/^F/E/ FF d/c/B/A/ | B/A/G/^F/ GG cB/c/ AA | z8 | D3 G2 E A>G | ^F2 G3 c2 A | %99
w: ri non del va- sto o-|cean l'on- * * * * de l'on- * * *|* * * * * de l'on- de spu- man- ti||non d'Eu- ro o d'A- qui-|lon non d'Eu- ro o|
 d>c B2 z c cc | B/A/G/A/ B/A/G/^F/ G/F/E/F/ G/F/G/A/ | B/A/G/^F/ G2 B A2 G | ^F4 z D FA | %103
w: d'A- qui- lon l'or- ri- bil|fia- * * * * * * * * * * * * * * *|to * * * * fre- nar po-|trà l'im- pe- tuo-|
 D/E/^F/G/ A/B/c/A/ dd de/^f/ | g^f/e/ d/e/d/c/ B/c/d/c/ B/A/B/G/ | AA B^F GA Bc | dc BA G^F GA | %107
w: * * * * * * * * * si co- * *||ri se di sol- car il mar *|* * * * * * * de-|
 B^F G4 F2 | G2 e4 cB | c2- c/c/c/c/ c>c c>B | A2 A2 AA A>A | d>d d>d c2 c2 | c>c cc/c/ d3 c | %113
w: sio gli spro- *|na Chi se non|quei * che l'a- mo- ro- sa in- se- gna|se- gue o di Mar- te al|ciel not- tur- no e fo- sco|può la piog- gia sof- frir le|
 e2 c2 c3 B | c8 | z8 | c2 cB A3 G | A2 A3 G F2 | E4 D4 | ^F2 G4 A2 | B8 |[M:3/1] z24 | z24 | %123
w: ne- vi el ven- *|to||Tac- cia pur dun- que o-|mai lin- gua men-|da- ce|di più chia-|mar|||
 d16 d8 | d12 c4 B8 | A16 A8 | B12 A4 G8 | G16 ^F8 | G16 G8 |[M:4/4] z G G2 z E FG x16 | %130
w: O- tio|o- tio e la-|sci- via|o- tio e la-|sci- via a-|mo- re|Ch'a- mor af- fet- to è|
 AG Ac G4 x16 | F2 z2 z4 x16 |[M:4/4] z e e2 z c de | fc eg d4 | c2 z2 z c cc | cA Bc dd dd | %136
w: sol di guer- rier co-|re|a- mor af- fet- to è|sol di guer- rier co-|re a- mor a-|mor af- fet- to è sol a- mor a-|
 d^F GA BG Bd | A4 G4- | G4 ^F4 | G8 |] z8 | z8 | z8 | z8 | z8 | z8 | z8 | z8 | z8 | z8 | z8 | z8 | %152
w: mor af- fet- to è sol di guer- rier|co- *||re.|||||||||||||
 z8 | z8 | z8 | z8 | z8 | z8 | z8 | z8 | z8 | z8 | z8 | z8 | z8 | z8 | z8 | z8 | z8 | z8 | z8 | %171
w: |||||||||||||||||||
 z8 | z8 | z8 | z8 | z8 | z8 | z8 | z8 | z8 | z8 | z8 | z8 | z8 | z8 | z8 | z8 | z8 | z8 | z8 | %190
w: |||||||||||||||||||
 z8 | z8 | z8 | z8 | z8 | z8 | z8 | z8 | z8 | z8 | z8 | z8 | z8 | z8 | z8 | z8 | z8 | z8 | z8 | %209
w: |||||||||||||||||||
 z8 | z8 | z8 | z8 | z8 | z8 | z8 | z8 | z8 | z8 | z8 | z8 | z8 | z8 | z8 | z8 | z8 | z8 | z8 | %228
w: |||||||||||||||||||
 z8 | z8 | z8 | z8 | z8 | z8 | z8 | z8 | z8 | z8 | z8 | z8 | z8 | z8 | z8 | z8 | z8 | z8 x16 | %246
w: ||||||||||||||||||
 z8 x16 |[M:3/1] z24 | z24 | z24 | z24 | z24 | z24 | z24 | z24 | z24 | z24 | z24 | z24 | z24 | %260
w: ||||||||||||||
 z24 | z24 | z24 | z24 | z24 |[M:4/4] z8 | z8 | z8 | z8 | z8 | z8 | z8 | z8 | z8 | z8 | z8 | z8 | %277
w: |||||||||||||||||
 z8 | z8 | z8 | z8 | z8 | z8 | z8 | z8 | z8 | z8 | z8 | z8 | z8 | z8 | z8 | z8 | z8 | z8 | z8 | %296
w: |||||||||||||||||||
 z8 | z8 | z8 | z8 | z8 | z8 | z8 | z8 | z8 | z8 | z8 | z8 | z8 | z8 | z8 | z8 | z8 x4 | z8 x4 | %314
w: ||||||||||||||||||
[M:4/4]"^6c. Ma per quell'ampio Egeo spieghi le vele\nTenore solo\nTerza parte" G6 GG | %315
w: Ma per quel|
 c>B c2 c2 cc | A2 A2 A/A/ c>cB | cc/e/ c>B d2 d2 |[M:4/4] z4 f2 dd | d4- dd dd | d3 c d2 d2 | %321
w: am- pio E- geo spie- ghi le|ve- le si dal por- to lon-|ta- no ar- di- to a- man- te|Rie- di che|me- * co il mio cor-|te- se a- mi- co|
 d2 d/c/c/B/ c2- c/_B/B/A/ | _B2 BB B2- B/A/A/A/ | A3 A A2 _B2 | A8 | G8 |] %326
w: veg- ghio ch'a si gran cor- * so a si gran|vo- lo di pal- * li- do ti-|mor di- pin- ge il|vi-|so.|
[M:4/4]"^6d. Riedi, ch'al nostro ardor, al nostro canto\nA 3. Doi Tenori e Basso" B2 G2 z4 | %327
w: Rie- di|
 z A GA ^F/E/D/E/ F/G/A/F/ | G4 z e ed |[M:4/4] ^c/B/A/B/ c/d/e/c/ d/A/B/c/ d/c/B/A/ | %330
w: ch'al no- str'ar- dir * * * * * * *|* ch'al no- stro|can- * * * * * * * * * * * * * * *|
 B2 B2 cc cc/c/ | cc eg e2 c2 | z4 dd dd/d/ | dd ^fa f2 d2 | AA AA/A/ AA ^ce | ^c2 A2 e2 ee | %336
w: * to ch'o- ra d'ar- mi e d'a-|mor con- fu- so suo- na|Ch'o- ra d'ar- mi e d'a-|mor con- fu- so suo- na|ch'o- ra d'ar- mi e d'a- mor con- fu- so|suo- na scor- ger ben|
 ^c2 d2 d2 c2 | d4 z4 | z g gg g4 | e3 c Bc dB | cB/A/ GA Bc dB | cd ec B4 | Ae ee e4 | %343
w: po- te o- ma- *|i|ch'A- mor e Mar-|te è qua- si in cor gen-|til * * * è qua- si in cor gen-|til cor- te- se af- fet-|to A- mor e Mar-|
 d3 A ^cd ec | dd dd d4 | B3 G ^FG AF | GA BB A4 | Gd dd d4 | B3 G ^FG AD | G3 A B2 G2 | G4 ^F4 | %351
w: te è qua- si in cor gen-|til A- mor e Mar-|te è qua- si in cor gen-|til cor- te- se af- fet-|to A- mor e Mar-|te è qua- si in cor gen-|til cor- te- se af-|fet- *|
 G8 |] %352
w: to.|
V:2
 z24 | z24 | z24 | z24 | z24 | z24 | z24 | z24 | z24 | z24 | z24 |[M:4/4] z8 | z8 | z8 | z8 | %15
w: |||||||||||||||
[M:3/1] z24 | z24 | z24 | z24 | z24 | z24 | z24 | z24 |[M:4/4] z8 | z8 | z8 | z8 | z8 |[M:4/4] z8 | %29
w: ||||||||||||||
 z8 | z8 | z8 | z8 | z8 | z8 | z8 |[M:3/1] z8 z8 d4 d4 | B4 G4 G4 B4 d4 d4 | G8 z8 d4 d4 | %39
w: |||||||O- gni A-|man- te o- gni a- man- te è guer-|rier o- gni a-|
 B4 G4 G4 B4 d4 d4 | G16 z8 | g8 d8 d8 | d16 d8 | d8 d8 d8 | B4 B4 B4 A4 G8 | G8 A16 | %46
w: man- te o- gni a- man- te è guer-|rier|Nel suo gran|re- gno|ha ben A-|mor la sua mi- li-|zia an- ch'e-|
 G8 z8 d4 d4 | B4 G4 G4 B4 d4 d4 | G8 z8 z8 | g8 d8 d8 | d16 d8 | d8 d8 d8 | B4 B4 B4 A4 G8 | %53
w: gli O- gni a-|man- te o- gni a- man- te è guer-|rier|nel suo gran|re- gno|ha ben a-|mor la sua mi- li-|
 G8 A16 | G16 z8 | g8 d8 d8 | d16 d8 | d8 d8 d8 | B4 B4 B4 A4 G8 | G8 A16 | G24 | %61
w: zia an- ch'e-|gli|nel suo gran|re- gno|ha ben a-|mor la sua mi- li-|zia an- ch'e-|gli|
[M:4/4] E2 EE E2 E2 | E3 E F2 E2 | F2 F2 z4 | z2 CC E2 EE |[M:4/4] G2 GG B2 BB | d4 g2 fe | %67
w: Am- bo le not- ti|ge- li- de e se-|re- ne|è l'a- man- te el guer-|rier è l'a- man- te el guer-|rier trag- gon veg-|
 d2 c4 B2 | c4 z4 | z8 | e2 de ^cA Bc | d2 d2 d3 ^c | d4 z4 | z4 z2 cc | B2 BB A2 d2- | %75
w: gian- * *|do||Que- sti a guar- datr l'a- man- te|mu- ra in- ten- *|to|Ne ri-|po- sa già mai mai|
 d^c cc d2 d2 | z8 | z8 | z8 | D2 DD G2 D2 | G2 B2 G2 B2 | d2 dB e3 d | ^f2 f2 d2 dd | %83
w: * ve- ra- ce- men- te||||Am- bo sor- mon- te-|ran de mon- ti al-|pe- stri le du- re|ci- me am- bo tor-|
 d2 d2 d2 dd | d/c/B/c/ d/c/B/A/ B/A/G/A/ B/A/G/^F/ | G2 G2 d>c B>A | G>A G>F E>F E>D | %87
w: ren- ti am- bo tor-|ren- * * * * * * * * * * * * * * *|* ti e fiu- * * *||
 C2 Cc c/d/e/d/ c/B/A/G/ | A/B/c/B/ A/G/F/E/ ^F/G/A/G/ F/E/D/C/ | D2 Dd g^f/e/ d/c/B/A/ | %90
w: * mi tra piog- * * * * * * *||* ge e nem- * * * * * * *|
 G/^F/E/F/ G/A/B/c/ dd z2 | z2 DE ^F2 G2 | E8 | D4 dc B2 | dd ^c2 d/=c/B/A/ B/A/G/^F/ | %95
w: * * * * * * * * * bi|var- che- ran si|cu-|ri non del va-|sto o- cean l'on- * * * * * * *|
 G/^F/E/D/ EE AG/A/ FF | D3 G2 E A>G | ^F2 G3 c2 A | d>c B2 c3 f- | fd g>f ee ee | %100
w: * * * * * de l'on- de spu- man- ti|non d'Eu- ro o d'A- qui-|lon non d'Eu- ro o|d'A- qui- lon non d'Eu-|* ro o d'A- qui- lon l'or- ri- bil|
 d/c/B/c/ d/c/B/A/ B/A/G/A/ B/A/B/c/ | d/c/B/A/ B2 d c2 B | AD ^FA D/E/F/G/ A/B/c/A/ | %103
w: fia- * * * * * * * * * * * * * * *|to * * * * fre- nar po-|trà l'im- pe- tu- o- * * * * * * *|
 dd de/^f/ gf/e/ d/e/d/c/ | B/c/d/c/ B/c/B/A/ G/A/B/A/ G/^F/G/E/ | ^F2 z A BF GA | Bc dc BA G^F | %107
w: * si co- * * * * * * * * *||ri se di sol- car il|mar * * * * * * *|
 GA BG A4 | G2 g4 ed | e2- e/e/e/e/ e>e e>e | c2 c2 cc c>c | f>f f>f e2 e2 | e>e ee/e/ f3 e | %113
w: * de- sio gli spro-|na Chi se non|quei * che l'a- mo- ro- sa in- se- gna|se- gue o di Mar- te al|ciel not- tur- no e fo- sco|può la piog- gia sof- frir le|
 g3 c d4 | c8 | c2 cB A2 A2 | A2 AG F3 E | F2 F3 E D2 | D2 ^C2 D4 | D2 G4 ^F2 | G8 | %121
w: ne- vi el ven-|to|Tac- cia pur dun- que|tac- cia pur dun- que o-|mai lin- gua men-|da- * ce|di più chia-|mar|
[M:3/1] d16 d8 | d12 c4 B8 | A16 A8 | G16 G8 | d16 d8 | d12 c4 B8 | A16 A8 | G16 G8 | %129
w: O- tio|o- tio e la-|sci- via a-|mo- re|o- tio|o- tio e la-|sci- via a-|mo- re|
[M:4/4] z8 x16 | z4 z c c2 x16 | z A Bc dA ce x16 |[M:4/4] B4 A4 | z4 z B B2 | z G AB ce ee | %135
w: |Ch'a- mor|af- fet- to è sol di guer- rier|co- re|a- mor|af- fet- to è sol a- mor a-|
 ec de f2 z2 | z4 z d dd | d^F GA BG Bd | A8 | G8 |] z8 | z8 | z8 | z8 | z8 | z8 | z8 | z8 | z8 | %149
w: mor af- fet- to è sol|a- mor a-|mor af- fet- to è sol di guer- rier|co-|re.||||||||||
 z8 | z8 | z8 | z8 | z8 | z8 | z8 | z8 | z8 | z8 | z8 | z8 | z8 | z8 | z8 | z8 | z8 | z8 | z8 | %168
w: |||||||||||||||||||
 z8 | z8 | z8 | z8 | z8 | z8 | z8 | z8 | z8 | z8 | z8 | z8 | z8 | z8 | z8 | z8 | z8 | z8 | z8 | %187
w: |||||||||||||||||||
 z8 | z8 | z8 | z8 | z8 | z8 | z8 | z8 | z8 | z8 | z8 | z8 | z8 | z8 | z8 | z8 | z8 | z8 | z8 | %206
w: |||||||||||||||||||
 z8 | z8 | z8 | z8 | z8 | z8 | z8 | z8 | z8 | z8 | z8 | z8 | z8 | z8 | z8 | z8 | z8 | z8 | z8 | %225
w: |||||||||||||||||||
 z8 | z8 | z8 | z8 | z8 | z8 | z8 | z8 | z8 | z8 | z8 | z8 | z8 | z8 | z8 | z8 | z8 | z8 | z8 | %244
w: |||||||||||||||||||
 z8 | z8 x16 | z8 x16 |[M:3/1] z24 | z24 | z24 | z24 | z24 | z24 | z24 | z24 | z24 | z24 | z24 | %258
w: ||||||||||||||
 z24 | z24 | z24 | z24 | z24 | z24 | z24 |[M:4/4] z8 | z8 | z8 | z8 | z8 | z8 | z8 | z8 | z8 | z8 | %275
w: |||||||||||||||||
 z8 | z8 | z8 | z8 | z8 | z8 | z8 | z8 | z8 | z8 | z8 | z8 | z8 | z8 | z8 | z8 | z8 | z8 | z8 | %294
w: |||||||||||||||||||
 z8 | z8 | z8 | z8 | z8 | z8 | z8 | z8 | z8 | z8 | z8 | z8 | z8 | z8 | z8 | z8 | z8 | z8 | z8 x4 | %313
w: |||||||||||||||||||
 z8 x4 | z8 | z8 | z8 | z8 | z8 | z8 | z8 | z8 | z8 | z8 | z8 | z8 |][M:4/4] z4 e2 c2 | z4 z d cd | %328
w: |||||||||||||Rie- di|ch'al no- str'ar-|
 B/A/G/A/ B/c/d/B/ c4 |[M:4/4] z A AA ^F/E/D/E/ F/G/A/F/ | G/D/E/F/ G/F/E/D/ E2 E2 | z4 GG GG/G/ | %332
w: dir * * * * * * * *|ch'al no- stro can- * * * * * * *|* * * * * * * * * to|ch'o- ra d'ar- mi e d'a-|
 GG Bd B2 G2 | z4 AA AA/A/ | AA ^ce c2 A2 | e2 ee g4- | g2 f2 e4 | dd dd d4 | B3 G Bc dB | %339
w: mor con- fu- so suo- na|Ch'o- ra d'ar- me e d'a-|mor con- fu- so suo- na|scor- ger ben po-|* te o- ma-|i ch'A- mor e Mar-|te è qua- si in cor gen-|
 cd ee d4 | c4 z4 | z e ee e4 | ^c3 A cd ec | de ff e4 | d4 z4 | z d dd d4 | B3 G ^FG AF | %347
w: til cor- te- se af- fet-|to|ch'A- mor e Mar-|te è qua- si in cor gen-|til cor- te- se af- fet-|to|ch'A- mor e Mar-|te è qua- si in cor gen-|
 GA BB A2 A2 | z2 B2 AB cA | B3 c d2 B2 | A8 | G8 |] %352
w: til cor- te- se af- fet- to|è qua- si in cor gen-|til cor- te- se af-|fet-|to.|
V:3
 z8 x16 | z8 x16 | z8 x16 |[M:3/1] z24 | z24 | z24 | z24 | z24 | z24 | z24 | z24 |[M:4/4] z8 | z8 | %13
w: |||||||||||||
 z8 | z8 |[M:3/1] z24 | z24 | z24 | z24 | z24 | z24 | z24 | z24 |[M:4/4] z8 | z8 | z8 | z8 | z8 | %28
w: |||||||||||||||
 z8 | z8 | z8 | z8 | z8 | z8 | z8 | z8 |[M:3/1] z24 | z24 | z24 | z24 | z24 | z24 | z24 | z24 | %44
w: ||||||||||||||||
 z24 | z24 | z24 | z24 | z24 | z24 | z24 | z24 | z24 | z24 | z24 | z24 | z24 | z24 | z24 | z24 | %60
w: ||||||||||||||||
 z24 |[M:4/4] z8 | z8 | z8 | z8 | z8 | z8 | z8 | z8 | z8 | z8 | z8 | z8 | z8 | z8 | z8 | z8 | z8 | %78
w: ||||||||||||||||||
 z8 | z8 | z8 | z8 | z8 | z8 | z8 | z8 | z8 | z8 | z8 | z8 | z8 | z8 | z8 | z8 | z8 | z8 | z8 | %97
w: |||||||||||||||||||
 z8 | z8 | z8 | z8 | z8 | z8 | z8 | z8 | z8 | z8 | z8 | z8 | z8 | z8 | z8 | z8 | z8 | z8 | z8 | %116
w: |||||||||||||||||||
 z8 | z8 | z8 | z8 | z8 | z8 x16 | z8 x16 | z8 x16 | z8 x16 |[M:3/1] z24 | z24 | z24 | z24 | %129
w: |||||||||||||
[M:3/1] z24 | z24 | z24 |[M:4/4] z8 | z8 | z8 | z8 | z8 | z8 | z8 | z8 |] %140
w: |||||||||||
[K:F][M:4/4][K:bass]"^6b. Io che cell'otio nacqui e d'otio vissi\nBasso solo\nSeconda parte" G,,4 G,,4 | %141
w: I- o|
 z2 G,,G,, G,,3 G,, | G,,2 G,,G,, G,,3 ^F,, | G,,4 G,,4 | z G,, G,,>G,, G,,4- | %145
w: che nell' o- tio|na- qui e d'o- tio|vis- si|che va- go sol|
[M:4/4] G,,G,, G,,G,, B,,3 B,, | G,,4 G,,4 | A,,A,, A,,4 A,,G,, | A,,4 A,,2 A,,A,, | %149
w: * di ri- pos- sa- ta|quie- te|tra- pas- sa- va non|pur l'ho- re not-|
 B,,4 B,,2 B,,2 | C,>C, C,>C, D,3 D, | D,6 C,2 | D,4 D,4 | z D, D,D, G,,4 | G,,2 G,,G,, G,,3 ^F,, | %155
w: tur- ne ma i|gior- ni in- tie- ri an- cor tra|mol- li|piu- me|e tra grat' om-|bre d'o- gni cu- ra|
 G,,4 G,,2 G,,2 | G,,3 G,, G,,2 B,,2 | G,,6 G,,2 | G,,F,, G,,A,, B,,A,, G,,^F,, | G,,4 G,,2 A,,2 | %160
w: scar- co il|fre- sco mi go-|dea d'un'|au- * * * ra * * *|lie- ve col|
 B,,A,, B,,A,, B,,A,, B,,A,, | B,,A,, B,,A,, B,,A,, B,,C, | D,4 D,2 B,,2 | C,2 D,2 _E,D, E,C, | %164
w: ro- * co * mor- * mo- *|rar * d'un * pic- * ciol *|ri- vo che|fea te- nor de- gli au gel-|
 D,C, D,B,, C,B,, C,A,, | B,,2 G,,2 D,4 | G,,8 |[K:C] z G,, B,,>G,, C,4- | C,2 C,2 E,2 G,2 | %169
w: let- * * * * * * *|* ti al can-|to|Io stes- so poi|* che ge- ne-|
 C2 G,2 C,4 | C,2 C,C, C,2 C,B,, | C,3 C, E,3 C, | G,2 G,G,, C,4- | C,C, C,>C, E,2- E,/E,/E,/D,/ | %174
w: ro- sa cu-|ra di bel- lis- si- mo A-|mor mi pun- se il|co- re all' hor|* ch'el guar- do vol- * si al di- vin|
 E,2 E,E, E,E, E,>E, | F,3 A, E,3 D, | E,2 E,2 z E, ^G,>^F, | ^G,3 G, G,G, G,>G, | %178
w: lu- me che sfa- vil- lar vi-|d'io da quei bel-|li oc- chi el suo- no u-|dì che da ru- bi- ni e|
 A,2 A,A, A,3 ^G, | A,3 B, C>B, B,>A, | B,2 B,2 z B, ^G,E, | A,,4 A,,2 A,,A,, | ^G,,6 G,,2 | %183
w: per- le mi giun- se al|cor d'An- ge- li- ca fa-|vel- la sprez- zan- do|gli a- gi di tran-|quil- la|
 A,,4 A,,2 z A, | ^F, F,>F,A, D,3 D, | B,,2 A,,2 G,,4 | G,,4 z E, ^C,A,, | D,>D, G,,G, E,C, A,,2 | %188
w: vi- ta non|pur chiog- go ai gran dì tra il|son- no i lu-|mi ma ben so-|ven- te an- cor e stel- le e se-|
 D,,2 D,>D, B,,G,,/G,,/ C,C, | A,,/B,,/C,/D,/ E,/^F,/^G,/E,/ A,/B,/C/G,/ A,3/2=G,/4=F,/4 | %190
w: ra can- giar vi- gi- le a- man- te in|Sol * * * * * * * * * * * * * *|
 E,/F,/G,/D,/ E,>D, C,>B,, A,,3/2G,,/4F,,/4 | E,,3 E, F,G, A,D, | E,8 | A,,8 | %194
w: |* e in al- * * *||ba|
 G,3 G, G,G,/G,/ G,>G, | B,2 D2 G,,4 | G,,2 G,,2 E,,3 E,, | D,,4 z D, D,C, | B,,2 ^F,,2 A,,4 | %199
w: spes- so car- co di fer- ro al-|l'om- bra os- cu-|ra men vo si-|cur o- ve il de-|sio mi spin-|
 D,,3 D, D,>D, D,D, | D,2 C,4 C,B,, | C,2 C,C,/C,/ A,,2 A,,A,, | G,,2 z G,, B,,>A,, B,,B,,/D,/ | %203
w: ge e tan- te sof- fro o-|gni hor du- re fa-|ti- che a- mo- ro- so guer-|rier ch'as- sai men gre- ve mi-|
 B,,3 G,, C,3 C, | E,G, E,C, E,G, B,G, | C2 C A,2 D,2 G,- | G, E,2 A,2 D,2 G,- | %207
w: su- ra in un col|va- lo- ro- so va- lo- ro- so Hi-|spa- no ten- tar pu-|* gnan- do ten- tar|
 G, E,2 A,2 D,2 G,- | G,4 G,4 | G,4 G,4 | G,6 ^F,2 | G,G,, B,,2 D,4 | D,2 D,2 D,4- | %213
w: * pu- gnan- do l'o-|* sti-|na- to|Bel- ga|* o pur là|do- ve in nun-|
 D,2 D,2 D,3 ^C, | D,4 D,4 | B,,4 B,,2 B,,2 | A,,8 | D,2 D,D, D,3 ^C, | D,4 D,2 D,2 | ^F,4 A,4 | %220
w: * da i lar- ghi|cam- pi|l'i- stro Re-|al|cin- to di fer- ro il|bu- sto se-|guir tra|
 ^F,4 D,2 D,2 | G,6 G,2 | G,3 ^F, G,4 | G,2 G,2 C,4 | A,,8 | E,8 | A,2 A,A, A,3 ^G, | A,2 A,2 F,4 | %228
w: l'ar- mi il|chia- ro e|no- bil san-|gue di quel|Gran|Re|ch'or su la sa- cra|te- sta po-|
 D,4 D,4 | A,8 | z2 D,2 D,2 D,2 | C,4 B,,4 | A,,8 | D,4 z2 D,2 | A,4 D,4 | G,4 z G, G,G, | %236
w: sa il splen-|dor|del di- a-|de- ma Au-|gu-|sto di|quel Gran|Re ch'al- le co-|
 E,3 D, C,4 | C,2 C,C, C,2 B,,B,, | A,,4 A,,2 A,,2 | A,,>B,, C,>D, E,>E, ^F,>^G, | A,2 A,,2 E,4 | %241
w: ro- ne ai lau-|ri al- le spo- gli e ai tri-|on- fi il|Ciel * * * * * * *|* de- sti-|
 A,,8 | F,,4 C,>C, C,B,, | C,2 C,C, E,3 F, | G,8 |[M:3/1] C,8 C8 C8 | B,12 B,4 B,8 | %247
w: na|O sem- pre glo- ri-|o- so o sem- pre in-|vi-|to se- gui|se- gui fe-|
 C12 C,4 C,4 C,4 | G,16 G,,8 | C,16 C,8 | z24 | z8 C,8 E,8 | G,12 A,4 B,8 | C24 | G,16 z8 | %255
w: li- ce e for- tu-|na- to a|pie- no||l'al- te|l'al- te vit-|to-|rie|
 C,12 C,4 C,8 | G,8 G,4 E,4 F,4 G,4 | A,12 B,4 C8 | E,8 G,16 | C,24 |[M:4/4] z2 A,,2 A,,3 A,, x16 | %261
w: l'al- te vit-|to- rie e glo- ri-|o- * *|se im- pre-|se|Che for- se un|
 D,4 B,,2 B,,B,, x16 | B,,2 ^F,,2 G,,4 x16 | D,4 z D, D,D, x16 | ^F,3 E, G,4 x16 | %265
w: di que- sta mia|ro- ca ce-|tra ri- tor- ne-|rà non vil|
[M:4/4] z2 C2 F,>G, A,>B, | C2 D/C/B,/A,/ G,2 F,2 | G,4 C,2 C,2 | G,4 z2 G,,2 | G,,2 G,,2 G,,4 | %270
w: nei tuo- * * *|* * * * * i gran|pre- gi al-|l'hor ch'al|suon de l'ar-|
 G,,4 z2 D,2 | D,2 D,2 D,4 | D,4 z2 G,2 | G,2 G,2 G,4 | G,2 G,G, ^F,/E,/D,/E,/ F,/G,/A,/F,/ | %275
w: mi ch'al|suon dell' ar-|mi ch'al|suon dell' ar-|mi can- te- rò * * * * * * *|
 G,/^F,/E,/F,/ G,/A,/B,/C/ D2 D,D, | G,2 G,,2 D,/C,/B,,/C,/ D,/E,/^F,/D,/ | G,>A, B,>C D2 D,2 | %278
w: * * * * * * * * * le tue|pal- me e i chia- * * * * * * *|* * * * * ri al-|
 G,2 G,2 C,4 | C,C, C,C, C,>C, C,>B,, | C,4 C,4 | C,E, G,G,/G,/ E,C, E,G, | C2 CC, G,4 | %283
w: lo- ri quan-|do l'ho- stil fu- ror de- pres- so e|do- mo|dal tuo in- vi- to va- lor dal tuo gran|sen- no u- drà|
 G,G,/G,/ G,/G,/G,/G,/ G,,2 G,,2 | G,G,/G,/ G,/G,/G,/G,/ G,,2 G,,G,/G,/ | %285
w: pien di spa- ven- to e di ter- ro- re|pien di spa- ven- to e di ter- ro- re l'O- ri-|
 G,G,/B,/ G,2 G,G,/G,/ B,B,/D/ | B,2 G,>B, G,>B, G,2 | G,G,/G,/ B,B,/D/ B,2 G,G,, | %288
w: en- te so- nar bel- li- che bel- li- che|squil- le so- nar so- nar|bel- li- che bel- li- che squil- le e|
 D,2 D,2 D,2 D,2 | D,4 z2 D,2 | ^F,2 A,2 F,4 | D,4 z2 G,,2 | D,2 D,2 D,2 D,2 | D,4 z2 D,2 | %294
w: so- vra gran de-|strier di|fer- ro a- dor-|no e|so- vra gran de-|strier di|
 ^F,2 A,2 F,4 | D,2 D,D, D,4 | D,,8 | D,,D,, D,,D,, D,3 C, | D,4 D,3 D, | G,>G, A,>A, B,>B, A,>A, | %300
w: fer- ro a- dor-|no di stu- por|mu-|ti i far- re- tra- ti|sci- ti tra|mil- le e mil- le Ca- va- glier e|
 G,2 A,D, G,>G, A,>A, | B,>B, A,>A, G,2 A,2 | G,2 G,G, G,2 G,,2 | G,2 G,G, G,2 G,,2 | %304
w: Du- ci tra mil- le e mil- le|Ca- va- glier e du- ci|Car- co di spo- glie|car- co di spo- glie|
 G,4 B,>B, D>D | B,2 G,D G,G, G,G,/G,/ | G,D, G,B, G,4 | G,D G,G, G,G,/G,/ G,D, | %308
w: O Gran Fer- nan- do Er-|ne- sto t'in- chi- ne- ran- no al- la|tu- a in- vi- ta spa-|da t'in- chi- ne- ran- no al- la tu- a in-|
 G,G,/G,/ G,G, G,B, G,G, | D,2 D,2 z2 D,2 | C,2 C,2 z2 B,,B,, | A,,2 A,,2 z4 |[M:6/4] G,,4 D,8 | %313
w: vi- ta al- la tu- a in- vi- ta spa- da|vin- ti ce-|den- do le co-|ro- ne|e i Re-|
 G,,12 |[M:4/4] z8 | z8 | z8 | z8 | z8 | z8 | z8 | z8 | z8 | z8 | z8 | z8 |][M:4/4] z8 | z8 | z8 | %329
w: gni.||||||||||||||||
[M:4/4] z8 | z8 | z8 | z8 | z8 | z8 | z8 | z8 | z8 | z8 | z G, G,G, G,4 | C,3 E, ^G,A, B,G, | %341
w: ||||||||||A- mor e Mar-|te è qua- si in cor gen-|
 A,B, CA, A,2 ^G,2 | A,4 z4 | z A, A,A, A,4 | D,3 D, ^F,G, A,F, | G,A, B,B, A,4 | G,D, D,D, D,4 | %347
w: til cor- te- se af- fet- *|to|A- mor e Mar-|te è qua- si in cor gen-|til l'i- stes- so af- fet-|to A- mor e Mar-|
 G,,3 G,, ^F,,G,, A,,F,, | G,,3 G,, D,D, C,C, | B,,3 A,, G,,2 G,,2 | D,8 | G,,8 |] %352
w: te è qua- si in cor gen-|til è qua- si in cor gen-|til cor- te- se af|fet-|to.|
V:4
 G,,16 G,,4 G,,4 | G,,4 G,,4 G,,4 G,,4 G,,4 G,,4 | G,,16 G,,4 G,,4 | %3
 G,,4 G,,4 G,,4 G,,4 G,,4 G,,4 | G,,24 | G,,8 G,8 G,8 | G,16 G,8 | G,8 G,8 G,8 | %8
 G,,4 G,,4 G,,4 A,,4 B,,8 | G,,8 D,16 | G,,24 |[M:4/4] C,8 | F,8 | E,4 D,4 | C,4 G,4 | %15
[M:3/1] C,16 C,8 | C,8 C,8 C,8 | E,8 E,8 E,8 | G,8 G,,8 G,,8 | B,,8 B,,8 B,,8 | D,8 D,8 D,8 | %21
 ^F,16 F,8 | A,16 A,8 |[M:4/4] ^C4 D4 | A,8 | D,6 D,2 | B,,4 E,2 E,D, | C,4 F,2 F,E, | %28
[M:4/4] D,4 G,2 F,2 | E,2 D,2 C,2 B,,2 | A,,4 ^G,,4 | A,,4 D,2 C,2 | B,,2 A,,2 G,,2 D,2 | %33
 G,,4 F,4 | E,4 _E,4 | D,4 C,4 |[M:3/1] D,16 D,4 D,4 | G,,4 G,,4 G,,4 G,,4 G,,4 G,,4 | %38
 G,,16 G,,4 G,,4 | G,,4 G,,4 G,,4 G,,4 G,,4 G,,4 | G,,24 | G,,8 G,8 G,8 | G,16 G,8 | G,8 G,8 G,8 | %44
 G,,4 G,,4 G,,4 A,,4 B,,8 | G,,8 D,16 | G,,16 D,4 D,4 | G,4 G,4 G,4 G,4 D,4 D,4 | G,24 | %49
 G,,8 G,8 G,8 | G,16 G,8 | G,8 G,8 G,8 | G,,4 G,,4 G,,4 A,,4 B,,8 | G,,8 D,16 | %54
 G,,4 G,,4 G,,4 A,,4 B,,8 | G,,8 D,16 | G,16 G,8 | G,8 G,8 G,8 | G,,4 G,,4 G,,4 A,,4 B,,8 | %59
 G,,8 D,16 | G,,24 |[M:4/4] C,8 | C,4 A,,2 G,,2 | F,,8 | C,8 |[M:4/4] G,,8 | G,8 | G,8 | C,8 | %69
 C,4 A,,4 | E,4 A,4 | ^F,4 A,4 | D,4 C,4 | B,,4 A,,4 | G,4 ^F,4 | E,4 D,4 | B,,4 G,,4- | %77
 G,,4 D,4- | D,2 ^C,2 D,4 | D,4 B,,4 | G,,8 | D,6 ^C,2 | D,8 | D2 C2 B,2 A,2 | G,4 G,4 | %85
 G,4 G,2 F,2 | E,2 D,2 C,2 B,,2 | A,,4 A,,2 G,,2 | F,,2 E,,2 D,,2 D,2 | G,,8 | G,,4 D,4 | %91
 B,,4 A,,2 G,,2 | A,,8 | D,4 D,2 G,,2 | C,2 A,,2 D,2 B,,2 | G,,2 C,2 A,,2 D,2 | %96
 B,,2 G,,2 C,2 A,,2 | D,2 G,,2 C,2 F,2 | D,2 G,2 C,2 F,2 | D,2 G,,2 C,4 | G,,8 | G,,4 A,, B,,2 C, | %102
 D,8 | D,4 G,,4 | G,,4 G,,4 | D,4 B,,4 | G,,8 | G,,4 D,4 | G,,8 | C,8 | F,8 | D,4 A,4 | A,4 F,4 | %113
 E,4 G,4 | C,8 | A,,8 | A,,8 | F,,4 D,,4 | A,,4 D,,4 | D,2 B,,4 A,,2 | G,,8 |[M:3/1] G,,16 G,,8 | %122
 G,,12 A,,4 B,,8 | D,16 D,8 | G,,12 A,,4 B,,8 | D,16 D,8 | G,,12 A,,4 B,,8 | D,16 D,8 | %128
 G,,16 G,,8 |[M:4/4] C,4 C,2 _B,,2 x16 | A,,2 F,,2 C,4 x16 | F,2 E,2 D,2 A,,2 x16 | %132
[M:4/4] E,4 A,2 G,2 | F,2 C,2 G,4 | C,2 B,,2 A,,4 | A,2 G,2 F,2 E,2 | D,2 C,2 B,,2 G,,2 | D,8- | %138
 D,8 | G,,8 |][K:F][M:4/4] G,,8 | G,,8 | G,,8 | G,,8 | G,,8 |[M:4/4] G,,8 | G,,8 | A,,8 | A,,8 | %149
 B,,8 | C,4 D,4 | _E,8 | D,8 | D,4 G,,4- | G,,4 G,,4 | G,,8 | G,,8 | G,,8 | G,,2 A,,2 B,,2 ^F,,2 | %159
 G,,4 G,,2 A,,2 | B,,2 C,2 B,,2 A,,2 | B,,2 A,,2 B,,2 C,2 | D,4 D,2 B,,2 | C,2 D,2 _E,2 C,2 | %164
 D,2 B,,2 C,2 A,,2 | B,,2 G,,2 D,4 | G,,8 |[K:C] G,,4 C,4 | C,8 | C,8 | C,8 | C,8 | G,2 G,,2 C,4 | %173
 C,4 ^C,4 | E,4 E,4 | F,8 | E,4 E,4 | ^G,8 | A,8 | A,2 ^G,2 A,4 | E,4 E,4 | A,,8 | ^G,,8 | %183
 A,,4 A,,3 A, | D,4 D,4 | B,,2 A,,2 G,,4 | G,,4 E,2 A,,2 | D,2 G,,2 C,2 A,,2 | D,2 B,,2 G,,2 C,2 | %189
 A,,2 E,2 A,4 | E,2 C,2 A,,4 | E,,4 D,4 | E,8 | A,,8 | G,8 | G,4 G,,4 | G,,4 E,,4 | D,,4 D,4 | %198
 B,,2 ^F,,2 A,,4 | D,,4 D,4 | B,,8 | A,,8 | G,,8 | G,,4 C,3 C, | C,2 C,2 C,E, G,2 | %205
 C2 G,2 D,2 G,,2 | C,2 A,,2 D,2 G,,2 | C,2 A,,2 D,2 G,,2 | C,D, E,F, G,G,, A,,B,, | %209
 C,D, E,F, G,G,, A,,B,, | C,D, E,C, D,4 | G,,4 D,4 | D,8 | D,8 | D,8 | B,,8 | A,,8 | D,8 | D,8 | %219
 D,8 | D,8 | G,8 | G,8 | G,4 C,4 | A,,8 | E,8 | A,8 | A,4 F,4 | D,4 D,4 | A,8 | D,8 | C,4 B,,4 | %232
 A,,8 | D,8 | D,8 | G,8 | E,4 C,4 | C,6 B,,2 | A,,8 | A,,4 E,4 | A,2 A,,2 E,4 | A,,8 | F,,8 | %243
 C,4 E,3 F, | G,8 |[M:3/1] C,24 | G,24 | C,8 C8 C8 | B,12 B,4 B,8 | C12 C,4 C,4 C,4 | G,16 G,,8 | %251
 C,16 C,8 | G,,24 | z8 C,8 E,8 | G,12 A,4 B,8 | C24 | G,24 | A,16 E,8- | E,8 G,16 | C,24 | %260
[M:4/4] A,,8 x16 | D,4 B,,4 x16 | B,,2 ^F,,2 G,,4 x16 | D,8 x16 | D,4 G,4 x16 |[M:4/4] C4 F,4 | %266
 C,4 G,2 F,2 | G,4 C,4 | G,4 z2 G,,2 | G,,2 G,,2 G,,4 | G,,4 z2 G,,2 | G,,2 G,,2 G,,4 | %272
 G,,4 z2 G,2 | G,2 G,2 G,4 | G,4 D,4 | G,,4 D,4 | G,4 D,4 | G,,4 D,4 | G,4 C,4 | C,8 | C,8 | %281
 C,C, C,C,/C,/ C,C, E,G, | C2 C,2 G,4 | %283
 G,,/G,,/G,,/G,,/ G,,/G,,/G,,/G,,/ G,,/G,,/G,,/G,,/ G,,/G,,/G,,/G,,/ | %284
 G,,/G,,/G,,/G,,/ G,,/G,,/G,,/G,,/ G,,/G,,/G,,/G,,/ G,,/G,,/G,,/G,,/ | %285
 G,/G,/G,/G,/ G,/G,/G,/G,/ G,/G,/G,/G,/ G,/G,/G,/G,/ | %286
 G,/G,/G,/G,/ G,/G,/G,/G,/ G,/G,/G,/G,/ G,/G,/G,/G,/ | %287
 G,/G,/G,/G,/ G,/G,/G,/G,/ G,/G,/G,/G,/ G,G,, | D,2 D,2 D,2 D,2 | D,4 z2 D,2 | D,2 D,2 D,4 | %291
 D,4 z2 G,,2 | D,2 D,2 D,2 D,2 | D,4 z2 D,2 | D,2 D,2 D,4 | D,8 | D,,8 | D,,8 | D,,4 D,4 | %299
 G,2 D,2 G,,2 D,2 | G,2 D,2 G,,2 D,2 | G,2 D,2 G,2 D,2 | %302
 G,,/G,,/G,,/G,,/ G,,/G,,/G,,/G,,/ G,,/G,,/G,,/G,,/ G,,/G,,/G,,/G,,/ | %303
 G,,/G,,/G,,/G,,/ G,,/G,,/G,,/G,,/ G,,/G,,/G,,/G,,/ G,,/G,,/G,,/G,,/ | %304
 G,/G,/G,/G,/ G,/G,/G,/G,/ G,/G,/G,/G,/ G,/G,/G,/G,/ | %305
 G,/G,/G,/G,/ G,/G,/G,/G,/ G,/G,/G,/G,/ G,/G,/G,/G,/ | %306
 G,/G,/G,/G,/ G,/G,/G,/G,/ G,/G,/G,/G,/ G,/G,/G,/G,/ | %307
 G,,/G,,/G,,/G,,/ G,,/G,,/G,,/G,,/ G,,/G,,/G,,/G,,/ G,,/G,,/G,,/G,,/ | %308
 G,,/G,,/G,,/G,,/ G,,/G,,/G,,/G,,/ G,,/G,,/G,,/G,,/ G,,/G,,/G,,/G,,/ | D,2 D,2 z2 D,2 | %310
 C,4 z2 B,,2 | A,,4 z4 |[M:6/4] G,,4 D,,8 | G,,12 |[M:4/4] C,8 | C,8 | F,8 | C,4 G,4 | %318
[M:4/4] z4 D,4 | D,4 D,4 | D,8 | D,4 D,4 | G,,4 C,4 | D,4 _E,2 C,2 | D,8 | G,,8 |][M:4/4] G,4 C4 | %327
 A,4 D,4 | G,4 C,4 |[M:4/4] A,,4 D,4 | G,,4 C,4 | E,4 C,4 | G,,4 B,,4 | D,4 ^F,4 | A,8 | A,4 G,4 | %336
 A,8 | D,8 | G,8 | C,4 G,4 | C,4 B,,4 | A,,2 A,4 ^G,2 | A,4 A,,4 | D,4 A,4 | D,4 ^F,4 | G,4 D,4 | %346
 G,,4 D,4 | G,,4 ^F,,4 | G,,3 G,, D,2 C,2 | B,,3 A,, G,,2 G,,2 | D,8 | G,,8 |] %352

